img/svg/products-decoration-desk-1.svg

<svg width="486" height="649" viewBox="0 0 486 649" fill="none" xmlns="http://www.w3.org/2000/svg"><g clip-path="url(#clip0)" fill="#B69D6D" opacity=".1"><path d="M469.789 887.047l-4.004-1.907 20.595-41.383 65.793-32.801 32.991-65.792 65.793-32.991 32.8-65.793 41.383-20.596 1.907 4.005-40.048 20.024-32.8 65.792-65.793 32.801-32.801 65.792-65.792 32.801-20.024 40.048z"/><path d="M442.138 887.047l-4.005-1.907 29.749-59.881 65.793-32.801 32.991-65.792 65.792-32.992 32.801-65.792 59.881-29.749 1.907 4.004-58.546 29.178-32.801 65.792-65.792 32.801-32.801 65.792-65.792 32.801-29.177 58.546z"/><path d="M395.606 888l-2.098-4.005 23.075-11.442 32.801-65.792 65.792-32.801 32.992-65.793 65.792-32.991 32.801-65.792 65.792-32.801 11.442-23.075 4.005 2.098-12.205 24.219-65.602 32.991-32.991 65.793-65.792 32.8-32.801 65.793-65.793 32.991-32.991 65.602L395.606 888z"/><path d="M340.112 888l-2.098-4.005 60.071-29.94 32.801-65.792 65.792-32.801 32.992-65.792 65.792-32.992 32.801-65.792 65.792-32.801 29.941-60.071 4.004 2.097-30.703 61.216-65.601 32.991-32.992 65.793-65.792 32.801-32.801 65.792-65.792 32.991-32.992 65.602L340.112 888z"/><path d="M309.599 887.047l-4.004-1.907 8.2-16.782 65.792-32.801 32.801-65.792 65.792-32.801 32.992-65.793 65.792-32.991 32.801-65.792 65.792-32.801 32.801-65.792 16.782-8.201 1.907 4.005-15.256 7.628-32.992 65.602-65.601 32.991-32.992 65.793-65.792 32.8-32.801 65.793-65.792 32.991-32.992 65.602-65.602 32.991-7.628 15.257z"/><path d="M281.757 887.047l-4.005-1.907 17.545-35.28 65.792-32.801 32.801-65.793 65.792-32.8 32.992-65.793 65.792-32.991 32.801-65.793 65.792-32.8 32.801-65.793 35.28-17.544 1.907 4.004-33.754 16.973-32.992 65.602-65.602 32.991-32.991 65.792-65.792 32.801-32.801 65.793-65.793 32.991-32.991 65.602-65.602 32.991-16.972 33.755z"/><path d="M254.105 887.047l-4.005-1.908 26.698-53.778 65.793-32.8 32.801-65.793 65.792-32.801 32.991-65.792 65.793-32.991 32.801-65.793 65.792-32.8 32.801-65.793L725.14 410.1l1.907 4.005-52.253 26.126-32.991 65.792-65.602 32.801-32.991 65.792-65.793 32.801-32.8 65.792-65.793 32.992-32.801 65.602-65.792 32.991-26.126 52.253z"/><path d="M216.727 888l-1.907-4.005 10.68-5.339 32.8-65.793 65.793-32.8 32.8-65.793 65.793-32.801 32.991-65.792 65.793-32.991 32.8-65.793 65.793-32.801 32.801-65.792 65.792-32.801 5.34-10.679 4.004 1.907-5.911 12.014-65.793 32.992-32.991 65.792-65.602 32.801-32.991 65.792-65.793 32.801-32.801 65.792-65.792 32.992-32.801 65.601-65.792 32.992-32.992 65.792L216.727 888z"/><path d="M169.051 884.186l-2.097-4.005 40.047-20.024 32.801-65.792 65.792-32.801 32.801-65.792 65.793-32.801 32.991-65.792 65.792-32.992 32.801-65.792 65.792-32.801 32.801-65.792 65.793-32.801 20.023-40.048 4.005 2.098-20.596 41.192-65.792 32.991-32.992 65.793-65.601 32.801-32.992 65.792-65.792 32.801-32.801 65.792-65.792 32.992-32.801 65.601-65.792 32.992-32.992 65.792-41.192 20.596z"/><path d="M169.051 856.343l-2.097-3.814 21.549-10.87 32.801-65.792 65.792-32.801 32.801-65.792 65.792-32.801 32.992-65.792 65.792-32.992 32.801-65.792 65.792-32.801 32.801-65.792 65.793-32.801 10.87-21.55 3.814 2.098-11.252 22.694-65.792 32.991-32.992 65.793-65.601 32.8-32.992 65.793-65.792 32.801-32.801 65.792-65.792 32.991-32.801 65.602-65.792 32.992-32.992 65.792-22.694 11.251z"/><path d="M169.051 828.692l-2.097-4.005 3.051-1.526 32.801-65.792 65.792-32.801 32.801-65.792 65.792-32.801 32.992-65.792 65.792-32.992 32.801-65.792 65.792-32.801 32.801-65.792 65.792-32.801 1.526-3.052 4.005 2.098-2.098 4.196-65.792 32.991-32.992 65.793-65.601 32.8-32.992 65.793-65.792 32.8-32.801 65.793-65.792 32.991-32.801 65.602-65.793 32.991-32.991 65.793-4.196 2.098z"/><path d="M170.005 777.583L166 775.676l18.308-36.805L250.1 706.07l32.992-65.792 65.601-32.801 32.992-65.793 65.792-32.991 32.801-65.602L546.07 410.1l32.801-65.793L615.677 326l1.907 4.005-35.28 17.735-32.992 65.792-65.602 32.801-32.991 65.793-65.792 32.8-32.801 65.793-65.793 32.991-32.8 65.602-65.793 32.991-17.735 35.28z"/><path d="M169.051 723.805l-2.097-4.005 64.648-32.228 32.991-65.793 65.602-32.8 32.992-65.793 65.792-32.991 32.801-65.602 65.792-32.991 32.229-64.649 4.004 2.098-32.991 65.983-65.602 32.801-32.991 65.792-65.793 32.801-32.8 65.793-65.793 32.991-32.801 65.602-65.983 32.991z"/><path d="M169.051 696.153l-2.097-4.004 46.15-23.075 32.991-65.793 65.602-32.801 32.991-65.792 65.793-32.991 32.8-65.602 65.793-32.992 23.075-46.15 4.005 2.098-23.838 47.485-65.602 32.801-32.991 65.792-65.793 32.801-32.8 65.792-65.793 32.992-32.801 65.602-47.485 23.837z"/><path d="M169.051 668.311l-2.097-4.005 27.652-13.731 32.991-65.792 65.602-32.801 32.991-65.792 65.793-32.992 32.8-65.601 65.793-32.992 13.73-27.652 4.005 2.098-14.493 28.987-65.602 32.801-32.991 65.792-65.793 32.801-32.801 65.792-65.792 32.992-32.801 65.601-28.987 14.494z"/><path d="M169.051 640.659l-2.097-4.005 9.153-4.577 32.992-65.792 65.602-32.801 32.991-65.792 65.792-32.992 32.801-65.601 65.793-32.992 4.576-9.154 4.005 2.098-5.339 10.489-65.602 32.801-32.992 65.792-65.792 32.801-32.801 65.792-65.792 32.992-32.801 65.601-10.489 5.34z"/><path d="M170.005 598.895L166 596.797l24.601-49.01 65.601-32.801 32.992-65.792 65.792-32.992 32.801-65.601L436.798 326l2.097 4.005-47.675 23.838-32.992 65.792-65.792 32.801-32.801 65.792-65.792 32.992-23.838 47.675z"/><path d="M170.005 543.401L166 541.303l6.103-12.014 65.601-32.801 32.992-65.792 65.792-32.992 32.801-65.602L381.303 326l2.098 4.005-10.679 5.339-32.992 65.793-65.792 32.801-32.801 65.792-65.792 32.991-5.34 10.68z"/><path d="M169.051 508.121l-2.097-4.005 52.252-26.126 32.992-65.793 65.792-32.991 26.126-52.253 4.005 2.098-26.889 53.588-65.792 32.8-32.801 65.793-53.588 26.889z"/><path d="M169.051 480.278l-2.097-4.005 33.754-16.781 32.992-65.793 65.792-32.991 16.782-33.755 4.004 2.098-17.544 35.089-65.792 32.801-32.801 65.793-35.09 17.544z"/><path d="M169.051 452.626l-2.097-4.004 15.256-7.628 32.991-65.793 65.793-32.991 7.628-15.257 4.005 2.098-8.391 16.591-65.793 32.801-32.8 65.792-16.592 8.391zm.954-32.61L166 418.109l30.703-61.406L258.11 326l1.907 4.005-60.072 29.94-29.94 60.071zm0-55.494L166 362.615l12.205-24.41L202.615 326l1.907 4.005-23.075 11.442-11.442 23.075z"/></g><defs><clipPath id="clip0"><path fill="#fff" d="M166 326h562v562H166z"/></clipPath></defs></svg>

<svg width="486" height="649" viewBox="0 0 486 649" fill="none" xmlns="http://www.w3.org/2000/svg">
<g opacity="0.1">
<g clip-path="url(#clip0)">
<path d="M469.789 887.047L465.785 885.14L486.38 843.757L552.173 810.956L585.164 745.164L650.957 712.173L683.757 646.38L725.14 625.784L727.047 629.789L686.999 649.813L654.199 715.605L588.406 748.406L555.605 814.198L489.813 846.999L469.789 887.047Z" fill="#B69D6D"/>
<path d="M442.138 887.047L438.133 885.14L467.882 825.259L533.675 792.458L566.666 726.666L632.458 693.674L665.259 627.882L725.14 598.133L727.047 602.137L668.501 631.315L635.7 697.107L569.908 729.908L537.107 795.7L471.315 828.501L442.138 887.047Z" fill="#B69D6D"/>
<path d="M395.606 888L393.508 883.995L416.583 872.553L449.384 806.761L515.176 773.96L548.168 708.167L613.96 675.176L646.761 609.384L712.553 576.583L723.995 553.508L728 555.606L715.795 579.825L650.193 612.816L617.202 678.609L551.41 711.409L518.609 777.202L452.816 810.193L419.825 875.795L395.606 888Z" fill="#B69D6D"/>
<path d="M340.112 888L338.014 883.995L398.085 854.055L430.886 788.263L496.678 755.462L529.67 689.67L595.462 656.678L628.263 590.886L694.055 558.085L723.996 498.014L728 500.111L697.297 561.327L631.696 594.318L598.704 660.111L532.912 692.912L500.111 758.704L434.319 791.695L401.327 857.297L340.112 888Z" fill="#B69D6D"/>
<path d="M309.599 887.047L305.595 885.14L313.795 868.358L379.587 835.557L412.388 769.765L478.18 736.964L511.172 671.171L576.964 638.18L609.765 572.388L675.557 539.587L708.358 473.795L725.14 465.594L727.047 469.599L711.791 477.227L678.799 542.829L613.198 575.82L580.206 641.613L514.414 674.413L481.613 740.206L415.821 773.197L382.829 838.799L317.227 871.79L309.599 887.047Z" fill="#B69D6D"/>
<path d="M281.757 887.047L277.752 885.14L295.297 849.86L361.089 817.059L393.89 751.266L459.682 718.466L492.674 652.673L558.466 619.682L591.267 553.889L657.059 521.089L689.86 455.296L725.14 437.752L727.047 441.756L693.293 458.729L660.301 524.331L594.699 557.322L561.708 623.114L495.916 655.915L463.115 721.708L397.322 754.699L364.331 820.301L298.729 853.292L281.757 887.047Z" fill="#B69D6D"/>
<path d="M254.105 887.047L250.1 885.139L276.798 831.361L342.591 798.561L375.392 732.768L441.184 699.967L474.175 634.175L539.968 601.184L572.769 535.391L638.561 502.591L671.362 436.798L725.14 410.1L727.047 414.105L674.794 440.231L641.803 506.023L576.201 538.824L543.21 604.616L477.417 637.417L444.617 703.209L378.824 736.201L346.023 801.803L280.231 834.794L254.105 887.047Z" fill="#B69D6D"/>
<path d="M216.727 888L214.82 883.995L225.5 878.656L258.3 812.863L324.093 780.063L356.893 714.27L422.686 681.469L455.677 615.677L521.47 582.686L554.27 516.893L620.063 484.092L652.864 418.3L718.656 385.499L723.996 374.82L728 376.727L722.089 388.741L656.296 421.733L623.305 487.525L557.703 520.326L524.712 586.118L458.919 618.919L426.118 684.711L360.326 717.703L327.525 783.304L261.733 816.296L228.741 882.088L216.727 888Z" fill="#B69D6D"/>
<path d="M169.051 884.186L166.954 880.181L207.001 860.157L239.802 794.365L305.594 761.564L338.395 695.772L404.188 662.971L437.179 597.179L502.971 564.187L535.772 498.395L601.564 465.594L634.365 399.802L700.158 367.001L720.181 326.953L724.186 329.051L703.59 370.243L637.798 403.234L604.806 469.027L539.205 501.828L506.213 567.62L440.421 600.421L407.62 666.213L341.828 699.205L309.027 764.806L243.235 797.798L210.243 863.59L169.051 884.186Z" fill="#B69D6D"/>
<path d="M169.051 856.343L166.954 852.529L188.503 841.659L221.304 775.867L287.096 743.066L319.897 677.274L385.689 644.473L418.681 578.681L484.473 545.689L517.274 479.897L583.066 447.096L615.867 381.304L681.66 348.503L692.53 326.953L696.344 329.051L685.092 351.745L619.3 384.736L586.308 450.529L520.707 483.329L487.715 549.122L421.923 581.923L389.122 647.715L323.33 680.706L290.529 746.308L224.737 779.3L191.745 845.092L169.051 856.343Z" fill="#B69D6D"/>
<path d="M169.051 828.692L166.954 824.687L170.005 823.161L202.806 757.369L268.598 724.568L301.399 658.776L367.191 625.975L400.183 560.183L465.975 527.191L498.776 461.399L564.568 428.598L597.369 362.806L663.161 330.005L664.687 326.953L668.692 329.051L666.594 333.247L600.802 366.238L567.81 432.031L502.209 464.831L469.217 530.624L403.425 563.424L370.624 629.217L304.832 662.208L272.031 727.81L206.238 760.801L173.247 826.594L169.051 828.692Z" fill="#B69D6D"/>
<path d="M170.005 777.583L166 775.676L184.308 738.871L250.1 706.07L283.092 640.278L348.693 607.477L381.685 541.684L447.477 508.693L480.278 443.091L546.07 410.1L578.871 344.307L615.677 326L617.584 330.005L582.304 347.74L549.312 413.532L483.71 446.333L450.719 512.126L384.927 544.926L352.126 610.719L286.333 643.71L253.533 709.312L187.74 742.303L170.005 777.583Z" fill="#B69D6D"/>
<path d="M169.051 723.805L166.954 719.8L231.602 687.572L264.593 621.779L330.195 588.979L363.187 523.186L428.979 490.195L461.78 424.593L527.572 391.602L559.801 326.953L563.805 329.051L530.814 395.034L465.212 427.835L432.221 493.627L366.428 526.428L333.628 592.221L267.835 625.212L235.034 690.814L169.051 723.805Z" fill="#B69D6D"/>
<path d="M169.051 696.153L166.954 692.149L213.104 669.074L246.095 603.281L311.697 570.48L344.688 504.688L410.481 471.697L443.281 406.095L509.074 373.103L532.149 326.953L536.154 329.051L512.316 376.536L446.714 409.337L413.723 475.129L347.93 507.93L315.13 573.722L249.337 606.714L216.536 672.316L169.051 696.153Z" fill="#B69D6D"/>
<path d="M169.051 668.311L166.954 664.306L194.606 650.575L227.597 584.783L293.199 551.982L326.19 486.19L391.983 453.198L424.783 387.597L490.576 354.605L504.306 326.953L508.311 329.051L493.818 358.038L428.216 390.839L395.225 456.631L329.432 489.432L296.631 555.224L230.839 588.216L198.038 653.817L169.051 668.311Z" fill="#B69D6D"/>
<path d="M169.051 640.659L166.954 636.654L176.107 632.077L209.099 566.285L274.701 533.484L307.692 467.692L373.484 434.7L406.285 369.099L472.078 336.107L476.654 326.953L480.659 329.051L475.32 339.54L409.718 372.341L376.726 438.133L310.934 470.934L278.133 536.726L212.341 569.718L179.54 635.319L169.051 640.659Z" fill="#B69D6D"/>
<path d="M170.005 598.895L166 596.797L190.601 547.787L256.202 514.986L289.194 449.194L354.986 416.202L387.787 350.601L436.798 326L438.895 330.005L391.22 353.843L358.228 419.635L292.436 452.436L259.635 518.228L193.843 551.22L170.005 598.895Z" fill="#B69D6D"/>
<path d="M170.005 543.401L166 541.303L172.103 529.289L237.704 496.488L270.696 430.696L336.488 397.704L369.289 332.102L381.303 326L383.401 330.005L372.722 335.344L339.73 401.137L273.938 433.938L241.137 499.73L175.345 532.721L170.005 543.401Z" fill="#B69D6D"/>
<path d="M169.051 508.121L166.954 504.116L219.206 477.99L252.198 412.197L317.99 379.206L344.116 326.953L348.121 329.051L321.232 382.639L255.44 415.439L222.639 481.232L169.051 508.121Z" fill="#B69D6D"/>
<path d="M169.051 480.278L166.954 476.273L200.708 459.492L233.7 393.699L299.492 360.708L316.274 326.953L320.278 329.051L302.734 364.14L236.942 396.941L204.141 462.734L169.051 480.278Z" fill="#B69D6D"/>
<path d="M169.051 452.626L166.954 448.622L182.21 440.994L215.201 375.201L280.994 342.21L288.622 326.953L292.627 329.051L284.236 345.642L218.443 378.443L185.643 444.235L169.051 452.626Z" fill="#B69D6D"/>
<path d="M170.005 420.016L166 418.109L196.703 356.703L258.11 326L260.017 330.005L199.945 359.945L170.005 420.016Z" fill="#B69D6D"/>
<path d="M170.005 364.522L166 362.615L178.205 338.205L202.615 326L204.522 330.005L181.447 341.447L170.005 364.522Z" fill="#B69D6D"/>
</g>
</g>
<defs>
<clipPath id="clip0">
<rect x="166" y="326" width="562" height="562" fill="white"/>
</clipPath>
</defs>
</svg>
